logo.svg

<svg xmlns="http://www.w3.org/2000/svg" xmlns:svg="http://www.w3.org/2000/svg" id="svg10" width="1200" height="1200" class="icon" p-id="2778" t="1570759446160" version="1.1" viewBox="0 0 3280.944 2800"><metadata id="metadata16"/><path id="vue1" d="m 1645.3325,601.00384 h 375.6741 L 1081.8212,2238.4782 142.63606,601.00384 H 861.1128 l 220.7084,379.70426 216.0127,-379.70426 z" style="fill:#41b883;stroke-width:1.59202778"/><path id="vue2" d="M 142.63606,601.00384 1081.8212,2238.4782 2021.0066,601.00384 H 1645.3325 L 1081.8212,1583.4885 513.61434,601.00384 Z" style="fill:#41b883;stroke-width:1.59202778"/><path id="vue3" d="M 513.18829,601.00384 1081.3953,1588.2347 1644.9064,601.00384 H 1297.408 L 1081.3953,980.7081 860.68685,601.00384 Z" style="fill:#35495e;stroke-width:1.59202778"/><path id="h2" d="m 1607.7916,1311.8305 594.6781,2.2921 187.3532,-316.32442 -598.6617,2.29212 z" style="fill:#35495e;stroke-width:1.59202778"/><path id="path3768" d="M 2198.5064,1909.5694 C 2867.4367,732.7013 2939.5021,605.42711 2937.8738,603.78127 c -0.7152,-0.72281 45.3027,-1.31421 102.2619,-1.31421 56.9593,0 103.5624,0.42798 103.5624,0.95104 0,0.52305 -208.5709,367.97804 -463.4913,816.5664 l -463.4913,815.6153 -102.101,0.5962 -102.1011,0.5962 z" style="fill:#35495e;stroke-width:1.59202778"/><path id="path3770" d="m 1680.5626,2233.3284 c 0,-1.3402 168.2082,-298.1454 440.3756,-777.0481 105.3188,-185.3176 257.2472,-452.7035 337.6185,-594.19078 l 146.1299,-257.24981 170.7466,-0.0401 170.7466,-0.04 -5.5354,9.74156 c -3.0444,5.35781 -43.7276,77.30148 -90.407,159.87511 -85.3568,150.99194 -337.5627,595.16312 -656.6023,1156.37252 l -172.0007,302.5592 -170.5358,0.5876 c -93.7946,0.3229 -170.536,0.069 -170.536,-0.5669 z" style="fill:#41b883;stroke-width:1.59202778"/><path id="h4" d="m 1429.7832,1625.3515 594.6785,2.292 187.3532,-316.3242 -598.6616,2.2921 z" style="fill:#35495e;stroke-width:1.59202778"/><path id="h3" d="m 1524.2066,1464.9034 608.285,6.8764 173.7466,-320.9085 h -619.0717 z" style="fill:#41b883;stroke-width:1.59202778"/></svg>

<svg xmlns="http://www.w3.org/2000/svg" width="1200" height="1200" class="icon" viewBox="0 0 3280.944 2800"><path fill="#41b883" d="M1645.332 601.004h375.675L1081.82 2238.478 142.636 601.004h718.477l220.708 379.704 216.013-379.704z"/><path fill="#41b883" d="M142.636 601.004l939.185 1637.474 939.186-1637.474h-375.675l-563.51 982.484-568.208-982.484z"/><path fill="#35495e" d="M513.188 601.004l568.207 987.23 563.511-987.23h-347.498l-216.013 379.704-220.708-379.704zM1607.792 1311.83l594.678 2.293 187.353-316.325-598.662 2.292zM2198.506 1909.57C2867.436 732.7 2939.502 605.426 2937.874 603.78c-.715-.723 45.303-1.314 102.262-1.314s103.562.428 103.562.951c0 .523-208.57 367.978-463.491 816.567L2216.715 2235.6l-102.1.596-102.102.596z"/><path fill="#41b883" d="M1680.563 2233.328c0-1.34 168.208-298.145 440.375-777.048a4135645.775 4135645.775 0 00337.619-594.19l146.13-257.25 170.746-.04 170.747-.04-5.536 9.741c-3.044 5.358-43.727 77.302-90.407 159.875-85.356 150.992-337.562 595.163-656.602 1156.373l-172 302.559-170.536.588c-93.795.322-170.536.069-170.536-.567z"/><path fill="#35495e" d="M1429.783 1625.351l594.679 2.292 187.353-316.324-598.662 2.292z"/><path fill="#41b883" d="M1524.207 1464.903l608.285 6.877 173.746-320.909h-619.072z"/></svg>
